dist/img/students.svg

<svg width="48" height="48" viewBox="0 0 48 48" fill="none" xmlns="http://www.w3.org/2000/svg">
<path d="M11.364 14.4692H14.1757V17.2809H11.364V14.4692Z" fill="#5A73EF"/>
<path d="M11.364 25.7158H14.1757V28.5275H11.364V25.7158Z" fill="#5A73EF"/>
<path d="M36.2258 27.4835C37.2633 27.4835 38.2699 27.6194 39.2277 27.8753V4.21785C39.2277 3.44183 38.5979 2.81201 37.8219 2.81201H33.5997C33.5997 6.47188 30.6221 9.44944 26.9622 9.44944H15.1944C13.365 9.44944 11.7051 8.70529 10.5036 7.50282C9.30115 6.3013 8.55699 4.64148 8.55699 2.81201H4.33479C3.55877 2.81201 2.92896 3.44183 2.92896 4.21785V39.5512H24.577C24.3108 33.0694 29.5733 27.4835 36.2258 27.4835ZM29.2322 11.6575H31.2613C32.0373 11.6575 32.6671 12.2874 32.6671 13.0634C32.6671 13.8394 32.0373 14.4692 31.2613 14.4692H29.2322C28.4562 14.4692 27.8263 13.8394 27.8263 13.0634C27.8263 12.2874 28.4562 11.6575 29.2322 11.6575ZM21.2049 11.6575H24.1712C24.9472 11.6575 25.577 12.2874 25.577 13.0634C25.577 13.8394 24.9472 14.4692 24.1712 14.4692H21.2049C20.4288 14.4692 19.799 13.8394 19.799 13.0634C19.799 12.2874 20.4288 11.6575 21.2049 11.6575ZM21.2049 17.2809H31.2613C32.0373 17.2809 32.6671 17.9107 32.6671 18.6867C32.6671 19.4637 32.0373 20.0926 31.2613 20.0926H21.2049C20.4288 20.0926 19.799 19.4637 19.799 18.6867C19.799 17.9107 20.4288 17.2809 21.2049 17.2809ZM16.9873 29.9334C16.9873 30.7104 16.3575 31.3393 15.5815 31.3393H9.95815C9.18212 31.3393 8.55231 30.7104 8.55231 29.9334V24.3101C8.55231 23.5341 9.18212 22.9042 9.95815 22.9042H15.5815C16.3575 22.9042 16.9873 23.5341 16.9873 24.3101V29.9334ZM16.9873 18.6867C16.9873 19.4637 16.3575 20.0926 15.5815 20.0926H9.95815C9.18212 20.0926 8.55231 19.4637 8.55231 18.6867V13.0634C8.55231 12.2874 9.18212 11.6575 9.95815 11.6575H15.5815C16.3575 11.6575 16.9873 12.2874 16.9873 13.0634V18.6867ZM19.799 24.4619C19.799 23.6859 20.4288 23.0561 21.2049 23.0561H31.2613C32.0373 23.0561 32.6671 23.6859 32.6671 24.4619C32.6671 25.2379 32.0373 25.8678 31.2613 25.8678H21.2049C20.4288 25.8678 19.799 25.2379 19.799 24.4619Z" fill="#5A73EF"/>
<path d="M15.1946 6.63743H26.9625C29.0721 6.63743 30.7882 4.92137 30.7882 2.81168V1.40584C30.7882 0.629815 30.1593 0 29.3824 0H12.7747C11.9978 0 11.3689 0.629815 11.3689 1.40584V2.81168C11.3689 4.92137 13.085 6.63743 15.1946 6.63743Z" fill="#5A73EF"/>
<path d="M36.2259 30.2949C31.3486 30.2949 27.3804 34.2631 27.3804 39.1405C27.3804 44.03 31.3439 47.986 36.2259 47.986C41.2044 47.986 45.0714 43.9119 45.0714 39.1405C45.0714 34.3681 41.2035 30.2949 36.2259 30.2949ZM40.7424 37.9633L36.3993 42.3064C35.8501 42.8556 34.9588 42.8537 34.4114 42.3064L31.7104 39.6044C31.1611 39.0561 31.1611 38.1657 31.7104 37.6165C32.2586 37.0673 33.149 37.0673 33.6982 37.6165L35.4058 39.3242L38.7536 35.9754C39.3028 35.4262 40.1932 35.4262 40.7424 35.9754C41.2916 36.5247 41.2916 37.4141 40.7424 37.9633Z" fill="#5A73EF"/>
<path d="M28.6492 47.9997C24.2302 47.9988 16.8196 47.9857 4.33479 47.9857C3.55877 47.9857 2.92896 47.3558 2.92896 46.5798V42.3623H25.0175C25.6531 44.5875 26.944 46.5462 28.6492 47.9997Z" fill="#5A73EF"/>
</svg>

<svg xmlns="http://www.w3.org/2000/svg" fill="none" viewBox="0 0 48 48">
  <path fill="#5A73EF" d="M11.364 14.47h2.812v2.81h-2.812v-2.81ZM11.364 25.716h2.812v2.811h-2.812v-2.811Z"/>
  <path fill="#5A73EF" d="M36.226 27.483c1.037 0 2.044.136 3.002.392V4.218c0-.776-.63-1.406-1.406-1.406H33.6a6.645 6.645 0 0 1-6.638 6.637H15.194c-1.829 0-3.489-.744-4.69-1.946a6.614 6.614 0 0 1-1.947-4.691H4.335c-.776 0-1.406.63-1.406 1.406V39.55h21.648c-.266-6.482 4.996-12.068 11.649-12.068Zm-6.994-15.825h2.03a1.406 1.406 0 0 1 0 2.811h-2.03a1.406 1.406 0 0 1 0-2.811Zm-8.027 0h2.966a1.406 1.406 0 0 1 0 2.811h-2.966a1.406 1.406 0 0 1 0-2.811Zm0 5.623H31.26a1.406 1.406 0 0 1 0 2.812H21.205a1.406 1.406 0 1 1 0-2.812Zm-4.218 12.652c0 .777-.63 1.406-1.405 1.406H9.957a1.406 1.406 0 0 1-1.406-1.406V24.31c0-.776.63-1.406 1.406-1.406h5.623c.777 0 1.406.63 1.406 1.406v5.623Zm0-11.246c0 .777-.63 1.406-1.405 1.406H9.957a1.406 1.406 0 0 1-1.406-1.406v-5.624c0-.776.63-1.405 1.406-1.405h5.623c.777 0 1.406.63 1.406 1.405v5.624Zm2.812 5.775c0-.776.63-1.406 1.406-1.406H31.26a1.406 1.406 0 0 1 0 2.812H21.205c-.776 0-1.406-.63-1.406-1.406Z"/>
  <path fill="#5A73EF" d="M15.195 6.637h11.767a3.83 3.83 0 0 0 3.826-3.825V1.406C30.788.63 30.16 0 29.382 0H12.775c-.777 0-1.406.63-1.406 1.406v1.406a3.83 3.83 0 0 0 3.826 3.825ZM36.226 30.295c-4.877 0-8.846 3.968-8.846 8.846a8.845 8.845 0 0 0 8.846 8.845c4.978 0 8.845-4.074 8.845-8.845 0-4.773-3.867-8.846-8.845-8.846Zm4.516 7.668L36.4 42.306c-.549.55-1.44.548-1.988 0l-2.7-2.702a1.405 1.405 0 1 1 1.987-1.987l1.708 1.707 3.348-3.349a1.406 1.406 0 0 1 1.988 1.988ZM28.65 48c-4.42-.001-11.83-.014-24.315-.014-.776 0-1.406-.63-1.406-1.406v-4.218h22.088A11.627 11.627 0 0 0 28.65 48Z"/>
</svg>
